packages/icons/raw/imported/TypeNotAllowed.svg

<svg width="32" height="36" viewBox="0 0 32 36" fill="none" xmlns="http://www.w3.org/2000/svg">
<g filter="url(#filter0_d_2567:570)">
<path d="M17 13.5898C15.22 13.5898 13.4799 14.1177 11.9999 15.1066C10.5198 16.0955 9.36628 17.5012 8.68509 19.1457C8.0039 20.7902 7.82567 22.5998 8.17294 24.3457C8.5202 26.0915 9.37737 27.6951 10.636 28.9538C11.8947 30.2125 13.4984 31.0696 15.2442 31.4169C16.99 31.7642 18.7996 31.5859 20.4441 30.9048C22.0887 30.2236 23.4943 29.07 24.4832 27.59C25.4722 26.1099 26 24.3699 26 22.5898C25.9975 20.2037 25.0485 17.9159 23.3612 16.2287C21.6739 14.5414 19.3862 13.5924 17 13.5898ZM13.7884 17.3793C14.749 16.7688 15.8618 16.4405 17 16.4319C18.6324 16.4345 20.1972 17.084 21.3515 18.2383C22.5058 19.3926 23.1554 20.9574 23.1579 22.5898C23.1493 23.728 22.821 24.8408 22.2105 25.8014L13.7884 17.3793ZM17 28.7477C15.3676 28.7452 13.8028 28.0956 12.6485 26.9414C11.4942 25.7871 10.8446 24.2222 10.8421 22.5898C10.8469 21.4422 11.1752 20.3192 11.7895 19.3498L20.2589 27.8193C19.2895 28.4335 18.1666 28.7619 17.0189 28.7667" fill="url(#paint0_linear_2567:570)"/>
<path d="M7 16.02V0L18.59 11.62H11.55L11.4 11.74L7 16.02Z" fill="white"/>
<path d="M8 2.41016V13.6002L10.97 10.7302L11.13 10.5902H16.16L8 2.41016Z" fill="black"/>
</g>
<defs>
<filter id="filter0_d_2567:570" x="-2" y="0" width="36" height="36" filterUnits="userSpaceOnUse" color-interpolation-filters="sRGB">
<feFlood flood-opacity="0" result="BackgroundImageFix"/>
<feColorMatrix in="SourceAlpha" type="matrix" values="0 0 0 0 0 0 0 0 0 0 0 0 0 0 0 0 0 0 127 0" result="hardAlpha"/>
<feOffset dy="2"/>
<feGaussianBlur stdDeviation="1"/>
<feColorMatrix type="matrix" values="0 0 0 0 0 0 0 0 0 0 0 0 0 0 0 0 0 0 0.25 0"/>
<feBlend mode="normal" in2="BackgroundImageFix" result="effect1_dropShadow_2567:570"/>
<feBlend mode="normal" in="SourceGraphic" in2="effect1_dropShadow_2567:570" result="shape"/>
</filter>
<linearGradient id="paint0_linear_2567:570" x1="17" y1="13.5898" x2="17" y2="31.5898" gradientUnits="userSpaceOnUse">
<stop stop-color="#F1F1F1"/>
<stop offset="1" stop-color="#D6D6D6"/>
</linearGradient>
</defs>
</svg>

<svg width="32" height="36" fill="none" xmlns="http://www.w3.org/2000/svg"><g filter="url(#a)"><path d="M17 13.59a9 9 0 1 0 9 9 9.01 9.01 0 0 0-9-9Zm-3.212 3.79A6.073 6.073 0 0 1 17 16.431a6.168 6.168 0 0 1 6.158 6.158 6.073 6.073 0 0 1-.948 3.211l-8.422-8.422ZM17 28.747a6.168 6.168 0 0 1-6.158-6.158 6.1 6.1 0 0 1 .947-3.24l8.47 8.47a6.101 6.101 0 0 1-3.24.947" fill="url(#b)"/><path d="M7 16.02V0l11.59 11.62h-7.04l-.15.12L7 16.02Z" fill="#fff"/><path d="M8 2.41V13.6l2.97-2.87.16-.14h5.03L8 2.41Z" fill="#000"/></g><defs><linearGradient id="b" x1="17" y1="13.59" x2="17" y2="31.59" gradientUnits="userSpaceOnUse"><stop stop-color="#F1F1F1"/><stop offset="1" stop-color="#D6D6D6"/></linearGradient><filter id="a" x="-2" y="0" width="36" height="36" filterUnits="userSpaceOnUse" color-interpolation-filters="sRGB"><feFlood flood-opacity="0" result="BackgroundImageFix"/><feColorMatrix in="SourceAlpha" values="0 0 0 0 0 0 0 0 0 0 0 0 0 0 0 0 0 0 127 0" result="hardAlpha"/><feOffset dy="2"/><feGaussianBlur stdDeviation="1"/><feColorMatrix values="0 0 0 0 0 0 0 0 0 0 0 0 0 0 0 0 0 0 0.25 0"/><feBlend in2="BackgroundImageFix" result="effect1_dropShadow_2567:570"/><feBlend in="SourceGraphic" in2="effect1_dropShadow_2567:570" result="shape"/></filter></defs></svg>
